X: 1
T: The Limestone Rock
R: reel
M: 4/4
L: 1/8
K: Gmaj
dc | BG G2 AGFG | DG G2 A2 dc | BG G2 AGAB | cABG A2 dc|
BG G2 AGFG | DGG2 A2 dc | BG G2 AGAB | cABG A2 Bd |
e2 dg e2 dg | e2 dB A2 Bd | eB B2 gB B2 | cABG A2 Bd |
e2 ed ea a2| gedB AcBA | G2 Bd g2 gb | agef gedc |


Tune 1619	Setting 26102

